src/hbcore/resources/themes/icons/hbdefault/scalable/qtg_mono_aspect_ratio_stretched.svg

<?xml version="1.0" encoding="UTF-8" standalone="no"?>
<!DOCTYPE svg PUBLIC "-//W3C//DTD SVG 1.1 Tiny//EN" "http://www.w3.org/Graphics/SVG/1.1/DTD/svg11-tiny.dtd">
<svg xmlns="http://www.w3.org/2000/svg" xmlns:xlink="http://www.w3.org/1999/xlink" baseProfile="tiny" height="30px" version="1.1" viewBox="0 0 30 30" width="30px" x="0px" y="0px">
<g fill-opacity="0.5" stroke-opacity="0.5">
<rect fill="none" height="30" width="30"/>
</g>
<path d="M2,3v24h26v-24h-26zm23,21h-20v-18h20v18z"/>
<path d="M19,12h-8v6h8v-6zm-2,4h-4v-2h4v2z"/>
<polygon points="15,7,12,10,18,10"/>
<polygon points="15,23,18,20,12,20"/>
<polygon points="21,12,21,18,24,15"/>
<polygon points="9,12,6,15,9,18"/>
</svg>

<?xml version="1.0" encoding="UTF-8"?>
<!DOCTYPE svg PUBLIC "-//W3C//DTD SVG 1.1 Tiny//EN" "http://www.w3.org/Graphics/SVG/1.1/DTD/svg11-tiny.dtd">
<svg baseProfile="tiny" height="30px" version="1.1" viewBox="0 0 30 30" width="30px" x="0px" xmlns="http://www.w3.org/2000/svg" xmlns:xlink="http://www.w3.org/1999/xlink" y="0px">
<g fill-opacity="0.5" stroke-opacity="0.5">
<rect fill="none" height="30" width="30"/>
</g>
<path d="M2,3v24h26V3H2z M25,24H5V6h20V24z"/>
<path d="M19,12h-8v6h8V12z M17,16h-4v-2h4V16z"/>
<polygon points="15,7 12,10 18,10 "/>
<polygon points="15,23 18,20 12,20 "/>
<polygon points="21,12 21,18 24,15 "/>
<polygon points="9,12 6,15 9,18 "/>
</svg>
